packages/kaspersky-hexa-ui-icons/src/iconsSVGs/48/Sandbox.svg

<svg width="48" height="48" viewBox="0 0 48 48" fill="none" xmlns="http://www.w3.org/2000/svg">
<g clip-path="url(#clip0_23473_2624)">
<path fill-rule="evenodd" clip-rule="evenodd" d="M24.4138 0.0896278C24.1346 -0.037339 23.8112 -0.0294099 23.5374 0.113415L0.541318 12.1114C0.533416 12.1155 0.525556 12.1197 0.517742 12.124C0.304351 12.2413 0.150228 12.4259 0.0680368 12.6374C0.0490004 12.6863 0.033769 12.7369 0.0225842 12.7886C0.00613301 12.8644 -0.00156382 12.9424 7.567e-10 13.0207V35C7.567e-10 35.3726 0.207119 35.7142 0.537433 35.8866L23.5334 47.8845C23.5518 47.8942 23.5704 47.9033 23.5893 47.9118C23.8473 48.0281 24.1439 48.0298 24.4043 47.9146C24.4234 47.9062 24.4422 47.8971 24.4608 47.8875C24.4746 47.8805 24.4882 47.8733 24.5019 47.8661L24.5231 47.855L47.4952 35.8869C47.8263 35.7144 48.0337 35.3718 48.0331 34.9985L48 13.0196C48.0013 12.9524 47.9958 12.8856 47.9837 12.8201C47.9705 12.748 47.9494 12.6776 47.9209 12.6101C47.8354 12.4079 47.6832 12.2325 47.4756 12.1203L47.4599 12.112L24.5759 0.172545L24.5337 0.150229C24.4941 0.129201 24.4545 0.108144 24.4138 0.0896278ZM24.9999 45.3514L46.0322 34.3939L46.0024 14.5856L24.9999 24.6302L24.9999 45.3514ZM23.9999 22.8915L31.9462 19.0911L24.0246 15.1303L16.5058 19.3074L23.9999 22.8915ZM14.3232 18.2635C14.3801 18.2113 14.4439 18.165 14.5144 18.1258L23 13.4116V2.64967L3.23641 12.9611L14.3232 18.2635ZM22.9999 24.6302L22.9999 45.3503L2 34.3938V14.5867L22.9999 24.6302ZM44.7636 12.9611L34.232 17.9979L25 13.382V2.64966L44.7636 12.9611Z" fill="black"/>
</g>
<defs>
<clipPath id="clip0_23473_2624">
<rect width="48" height="48" fill="white"/>
</clipPath>
</defs>
</svg>

<svg xmlns="http://www.w3.org/2000/svg" width="48" height="48" fill="none" viewBox="0 0 48 48"><path fill="#000" fill-rule="evenodd" d="M24.4138.0896a1 1 0 0 0-.8763.0238L.5413 12.1114l-.0235.0126a.996.996 0 0 0-.4497.5134 1 1 0 0 0-.068.3833V35a1 1 0 0 0 .5373.8866l22.996 11.9979q.0277.0145.0559.0273a1 1 0 0 0 .8715-.0243q.0206-.0106.0411-.0214l.0212-.0111 22.9721-11.9681a1 1 0 0 0 .5379-.8884L48 13.0196a1 1 0 0 0-.0791-.4095.996.996 0 0 0-.4453-.4898l-.0157-.0083L24.5759.1725l-.0422-.0223c-.0396-.021-.0792-.042-.1199-.0606m.5861 45.2618 21.0323-10.9575-.0298-19.8083-21.0025 10.0446zm-1-22.4599 7.9463-3.8004-7.9216-3.9608-7.5187 4.1771zm-9.6767-4.628a1 1 0 0 1 .1912-.1377L23 13.4116V2.6496L3.2364 12.9612zm8.6767 6.3667v20.7201L2 34.3938V14.5867zm21.7637-11.6691L34.232 17.9979 25 13.382V2.6497z"/></svg>
